X:1
T:Title
%%score { ( 1 4 ) | ( 2 3 ) }
L:1/8
M:6/8
K:Bb
V:1 treble nm="Grand Piano"
V:4 treble 
V:2 bass 
V:3 bass 
V:1
 z3 z2[Q:1/4=100] [DF] | [DF]2 [DF] [DF]2 [DF] | FGA [DB]2 [DB] | c2 =B c2 F |[M:5/8] [Fd]3 [DB]2 | %5
[M:1/8] [DF] |[M:3/4] [DF]2 [DF] [DF]2 [DF] | FG A [DB]2 [FB] | [Gc]2 [Gc] [Fd]2 [Ec] | [DB]6 | %10
 [Ge]3 [EG]2 [Ge] | [Fd]3 [DF]3 | A2 AA Bc | [Fd]3 [DB]3 | [Ge]3 [EG]2 [Ge] | [Fd]3 [DF]2 [Fd] | %16
 c2 B d2 c[Q:1/4=99][Q:1/4=97][Q:1/4=96][Q:1/4=94][Q:1/4=93][Q:1/4=91][Q:1/4=90][Q:1/4=88][Q:1/4=87][Q:1/4=85][Q:1/4=84][Q:1/4=82][Q:1/4=81] | %17
[M:5/8] B2- [EB-] [DB]2[Q:1/4=79][Q:1/4=78][Q:1/4=76] |] %18
V:2
 z3 z2 [B,,B,] | [B,,B,]2 [B,,B,] [B,,B,]2 [B,,B,] | .A,3 z3 | %3
 [F,A,F]2 [F,_A,F] [F,=A,E]2 [F,A,E] |[M:5/8] [B,,B,]-[B,,B,]- [B,,B,]3 |[M:1/8] [B,,B,] | %6
[M:3/4] [B,,B,]2 [B,,B,] [B,,B,]2 [B,,B,] | .A,2 z2 z2 | [E,B,]2 [=E,B,] [F,B,]2 [F,A,] | %9
 [B,,B,]6 | [E,B,]3 [E,B,]2 [E,B,] | [B,,B,]3 [B,,B,]3 | [F,CE]2 [F,CE][CE] [B,D][F,A,E] | %13
 [B,,B,]3 [B,,B,]3 | [E,B,]3 [E,B,]2 [E,B,] | [B,,B,]3 [B,,B,]2 [B,,B,] | %16
 [F,A,E]2 [G,C=E] [F,B,F]2 [F,A,_E] |[M:5/8] z2 G, F,2 |] %18
V:3
 x6 | x6 | [F,E]-[F,B,E][F,CE] [B,,B,]2 [B,,B,] | x6 |[M:5/8] x5 |[M:1/8] x |[M:3/4] x6 | %7
 [F,E]-[F,B,E] [F,CE] [B,,B,]2 [D,B,] | x6 | x6 | x6 | x6 | z2 z .F,3 | x6 | x6 | x6 | x6 | %17
[M:5/8] B,,-B,,- B,,3 |] %18
V:4
 x6 | x6 | x6 | x6 |[M:5/8] x5 |[M:1/8] x |[M:3/4] x6 | x6 | x6 | x6 | x6 | x6 | x6 | x6 | x6 | %15
 x6 | x6 |[M:5/8] [B,D]2 z z2 |] %18

